img/icon-home.svg

<svg width="16" height="16" viewBox="0 0 16 16" fill="none" xmlns="http://www.w3.org/2000/svg">
<path d="M5.39746 3.27686C5.39746 2.79443 5.51383 2.35645 5.74658 1.96289C5.97933 1.5651 6.29248 1.24772 6.68604 1.01074C7.07959 0.773763 7.51758 0.655273 8 0.655273C8.48242 0.655273 8.92041 0.773763 9.31396 1.01074C9.70752 1.24772 10.0207 1.5651 10.2534 1.96289C10.4904 2.35645 10.6089 2.79443 10.6089 3.27686C10.6089 3.67464 10.5264 4.04492 10.3613 4.3877C10.1963 4.72624 9.97201 5.01823 9.68848 5.26367C9.40495 5.50488 9.08122 5.67627 8.71729 5.77783V9.76416C8.71729 10.1704 8.69401 10.5407 8.64746 10.875C8.60091 11.2051 8.54167 11.4907 8.46973 11.7319C8.39779 11.9731 8.3195 12.1593 8.23486 12.2905C8.15023 12.4175 8.07194 12.481 8 12.481C7.92806 12.481 7.84977 12.4175 7.76514 12.2905C7.68473 12.1593 7.60645 11.9731 7.53027 11.7319C7.45833 11.4907 7.39697 11.2051 7.34619 10.875C7.29964 10.5407 7.27637 10.1704 7.27637 9.76416V5.77783C6.91667 5.67627 6.59505 5.50488 6.31152 5.26367C6.02799 5.01823 5.80371 4.72624 5.63867 4.3877C5.47786 4.04492 5.39746 3.67464 5.39746 3.27686ZM7.26367 3.42285C7.50911 3.42285 7.71859 3.33398 7.89209 3.15625C8.06982 2.97852 8.15869 2.76904 8.15869 2.52783C8.15869 2.28662 8.06982 2.07926 7.89209 1.90576C7.71859 1.72803 7.50911 1.63916 7.26367 1.63916C7.02669 1.63916 6.81934 1.72803 6.6416 1.90576C6.46387 2.07926 6.375 2.28662 6.375 2.52783C6.375 2.76904 6.46387 2.97852 6.6416 3.15625C6.81934 3.33398 7.02669 3.42285 7.26367 3.42285Z" fill="black"/>
<path d="M8.00049 15.0898C6.95947 15.0898 6.02425 15.0094 5.19482 14.8486C4.36963 14.6921 3.66504 14.472 3.08105 14.1885C2.5013 13.9092 2.05697 13.5854 1.74805 13.2173C1.44336 12.8534 1.29102 12.464 1.29102 12.0493C1.29102 11.7023 1.38623 11.3807 1.57666 11.0845C1.76709 10.7882 2.02523 10.5216 2.35107 10.2847C2.67692 10.0435 3.04932 9.8361 3.46826 9.6626C3.88721 9.48486 4.32731 9.3431 4.78857 9.2373C5.25407 9.13151 5.71322 9.06803 6.16602 9.04688V10.3037C5.78939 10.3249 5.4043 10.3799 5.01074 10.4688C4.62142 10.5576 4.26172 10.674 3.93164 10.8179C3.60579 10.9618 3.34342 11.1289 3.14453 11.3193C2.94564 11.5098 2.84619 11.715 2.84619 11.9351C2.84619 12.2101 2.97314 12.4598 3.22705 12.6841C3.48096 12.9126 3.83854 13.1073 4.2998 13.2681C4.76107 13.4289 5.30485 13.5537 5.93115 13.6426C6.56169 13.7357 7.25146 13.7822 8.00049 13.7822C8.74528 13.7822 9.43083 13.7357 10.0571 13.6426C10.6877 13.5537 11.2336 13.4268 11.6948 13.2617C12.1561 13.1009 12.5137 12.9084 12.7676 12.6841C13.0257 12.4598 13.1548 12.2101 13.1548 11.9351C13.1548 11.715 13.0532 11.5098 12.8501 11.3193C12.647 11.1289 12.3825 10.9618 12.0566 10.8179C11.7308 10.674 11.3732 10.5576 10.9839 10.4688C10.5946 10.3799 10.2074 10.3249 9.82227 10.3037V9.04688C10.2793 9.06803 10.7384 9.13151 11.1997 9.2373C11.6652 9.3431 12.1074 9.48486 12.5264 9.6626C12.9453 9.8361 13.3177 10.0435 13.6436 10.2847C13.9736 10.5216 14.2318 10.7882 14.418 11.0845C14.6084 11.3807 14.7036 11.7023 14.7036 12.0493C14.7036 12.464 14.5492 12.8534 14.2402 13.2173C13.9355 13.5854 13.4933 13.9092 12.9136 14.1885C12.3338 14.472 11.6292 14.6921 10.7998 14.8486C9.97461 15.0094 9.0415 15.0898 8.00049 15.0898Z" fill="#02D174"/>
</svg>

<svg width="16" height="16" fill="none" xmlns="http://www.w3.org/2000/svg"><path d="M5.397 3.277c0-.483.117-.92.35-1.314.232-.398.545-.715.939-.952A2.498 2.498 0 0 1 8 .655c.482 0 .92.119 1.314.356s.707.554.94.952c.236.393.355.831.355 1.314 0 .398-.083.768-.248 1.11-.165.34-.389.631-.673.877a2.53 2.53 0 0 1-.97.514v3.986c0 .406-.024.777-.07 1.111-.047.33-.106.616-.178.857a2.23 2.23 0 0 1-.235.559c-.085.127-.163.19-.235.19-.072 0-.15-.063-.235-.19a2.6 2.6 0 0 1-.235-.56 6.48 6.48 0 0 1-.184-.856 8.094 8.094 0 0 1-.07-1.11V5.777a2.535 2.535 0 0 1-.964-.514 2.727 2.727 0 0 1-.673-.876 2.583 2.583 0 0 1-.242-1.111zm1.867.146a.846.846 0 0 0 .628-.267.86.86 0 0 0 .267-.628.839.839 0 0 0-.267-.622.846.846 0 0 0-.628-.267.853.853 0 0 0-.622.267.839.839 0 0 0-.267.622c0 .241.089.45.267.628a.853.853 0 0 0 .622.267z" fill="#000"/><path d="M8 15.09c-1.04 0-1.976-.08-2.805-.241-.825-.157-1.53-.377-2.114-.66-.58-.28-1.024-.604-1.333-.972-.305-.364-.457-.753-.457-1.168 0-.347.095-.668.286-.964.19-.297.448-.563.774-.8a5.234 5.234 0 0 1 1.117-.622 7.89 7.89 0 0 1 1.32-.426c.466-.105.925-.169 1.378-.19v1.257a7.035 7.035 0 0 0-1.155.165c-.39.089-.75.205-1.08.349a2.71 2.71 0 0 0-.786.501c-.2.19-.299.396-.299.616 0 .275.127.525.381.75.254.228.612.422 1.073.583.461.16 1.005.286 1.631.375.63.093 1.32.14 2.07.14.744 0 1.43-.047 2.056-.14a8.355 8.355 0 0 0 1.638-.381c.461-.161.819-.354 1.073-.578.258-.224.387-.474.387-.749 0-.22-.102-.425-.305-.616a2.808 2.808 0 0 0-.793-.501 5.896 5.896 0 0 0-1.073-.35 6.919 6.919 0 0 0-1.162-.164V9.047c.457.021.916.085 1.378.19.465.106.907.248 1.326.426.42.173.792.38 1.118.622.33.237.588.503.774.8.19.296.286.617.286.964 0 .415-.155.804-.464 1.168-.305.368-.747.692-1.326.971-.58.284-1.285.504-2.114.66-.825.161-1.759.242-2.8.242z" fill="#02D174"/></svg>
